_includes/icons/color-certificate.svg

<svg fill="#666" height="50" viewBox="0 0 48 48" width="50" xmlns="http://www.w3.org/2000/svg"><path d="m4 9h40v30h-40z" fill="#e8eaf6"/><path d="m30 34h2.800781l-5-5-2.800781 2.800781 5 5z" fill="#5c6bc0"/><path d="m18 34h-2.800781l5-5 2.800781 2.800781-5 5z" fill="#5c6bc0"/><g fill="#9fa8da"><path d="m11 15h26v4h-26z"/><path d="m24 23c-2.800781 0-5 2.199219-5 5s2.199219 5 5 5 5-2.199219 5-5-2.199219-5-5-5zm0 8c-1.699219 0-3-1.300781-3-3s1.300781-3 3-3 3 1.300781 3 3-1.300781 3-3 3z"/><path d="m3 8v32h42v-32zm40 27c-1.699219 0-3 1.300781-3 3h-32c0-1.699219-1.300781-3-3-3v-22c1.699219 0 3-1.300781 3-3h32c0 1.699219 1.300781 3 3 3z"/></g></svg>

<svg xmlns="http://www.w3.org/2000/svg" viewBox="0 0 48 48" width="50" height="50" fill="#666"><path d="M 4 9 L 44 9 L 44 39 L 4 39 Z" fill="#e8eaf6"/><path d="M 30 34 L 32.800781 34 L 27.800781 29 L 25 31.800781 L 30 36.800781 Z" fill="#5c6bc0"/><path d="M 18 34 L 15.199219 34 L 20.199219 29 L 23 31.800781 L 18 36.800781 Z" fill="#5c6bc0"/><path d="M 11 15 L 37 15 L 37 19 L 11 19 Z" fill="#9fa8da"/><path d="M 24 23 C 21.199219 23 19 25.199219 19 28 C 19 30.800781 21.199219 33 24 33 C 26.800781 33 29 30.800781 29 28 C 29 25.199219 26.800781 23 24 23 Z M 24 31 C 22.300781 31 21 29.699219 21 28 C 21 26.300781 22.300781 25 24 25 C 25.699219 25 27 26.300781 27 28 C 27 29.699219 25.699219 31 24 31 Z" fill="#9fa8da"/><path d="M 3 8 L 3 40 L 45 40 L 45 8 Z M 43 35 C 41.300781 35 40 36.300781 40 38 L 8 38 C 8 36.300781 6.699219 35 5 35 L 5 13 C 6.699219 13 8 11.699219 8 10 L 40 10 C 40 11.699219 41.300781 13 43 13 Z" fill="#9fa8da"/></svg>
